svg/about-link-hover.svg

<svg width="25" height="24" viewBox="0 0 25 24" fill="none" xmlns="http://www.w3.org/2000/svg">
<path d="M22.72 3.24124C23.2932 2.85949 22.7455 3.2708 22.4733 3.42741C21.6802 3.88358 21.4721 4.47507 20.9963 5.21938C20.3934 6.16241 19.891 6.93739 18.9404 7.55569C18.2791 7.98587 17.9654 8.72572 17.3567 9.23462C16.5735 9.88934 16.3883 10.8389 15.7128 11.5182C14.6144 12.623 12.8432 13.4036 11.5753 14.3602C9.72209 15.7584 7.62963 16.9484 5.58886 18.0593C4.34322 18.7374 2.48515 19.8874 1.6887 21.0449" stroke="#BDBDBD" stroke-width="2" stroke-linecap="round"/>
<path d="M10.9349 4.90562C13.548 5.27132 16.0204 3.92535 18.6335 4.21733C19.6935 4.33577 20.8122 4.17619 21.8827 4.21836C22.2924 4.2345 23.2026 3.98473 23.5757 4.12423C23.8011 4.20847 22.9839 5.76432 22.9317 5.92241C21.9068 9.02678 21.7752 12.6092 21.3217 15.8498" stroke="#BDBDBD" stroke-width="2" stroke-linecap="round"/>
</svg>

<svg xmlns="http://www.w3.org/2000/svg" width="25" height="24" fill="none"><path stroke="#BDBDBD" stroke-linecap="round" stroke-width="2" d="M22.72 3.241c.573-.382.026.03-.247.186-.793.457-1 1.048-1.477 1.792-.603.943-1.105 1.718-2.056 2.337-.66.43-.975 1.17-1.583 1.679-.784.654-.969 1.604-1.644 2.283-1.099 1.105-2.87 1.886-4.138 2.842-1.853 1.398-3.945 2.588-5.986 3.7-1.246.677-3.104 1.827-3.9 2.985"/><path stroke="#BDBDBD" stroke-linecap="round" stroke-width="2" d="M10.935 4.906c2.613.365 5.085-.98 7.699-.689 1.06.119 2.178-.04 3.249.001.41.016 1.32-.233 1.693-.094.225.084-.592 1.64-.644 1.798-1.025 3.105-1.157 6.687-1.61 9.928"/></svg>
